brandFactory_export/1.Light/Descargar_Bajar_1Light.svg

<?xml version="1.0" encoding="UTF-8"?>
<svg width="24px" height="24px" viewBox="0 0 24 24" version="1.1" xmlns="http://www.w3.org/2000/svg" xmlns:xlink="http://www.w3.org/1999/xlink">
    <title>1.Light/Descargar_Bajar_1Light</title>
    <g id="Symbols" stroke="none" stroke-width="1" fill="none" fill-rule="evenodd">
        <g id="1.Light/Descargar_Bajar_1Light" fill="#5CB615" fill-rule="nonzero">
            <path d="M11.8117647,23.610084 C11.5596639,23.610084 11.3243697,23.4991597 11.1630252,23.3042017 L0.235294118,12.0033613 L0.21512605,11.9831933 C-0.0100840336,11.707563 -0.0537815126,11.3277311 0.100840336,11.0084034 C0.238655462,10.7058824 0.541176471,10.5109244 0.87394958,10.5109244 L5.8789916,10.5109244 C5.98319328,10.5109244 6.07058824,10.410084 6.07058824,10.2890756 L6.07058824,2.02352941 C6.07058824,0.91092437 6.97478992,0.00672268908 8.08739496,0.00672268908 L15.5394958,0.00672268908 C16.6521008,0.00672268908 17.5563025,0.91092437 17.5563025,2.02352941 L17.5529412,10.2857143 C17.5529412,10.410084 17.6369748,10.507563 17.7445378,10.507563 L22.7798319,10.507563 C23.112605,10.5109244 23.4151261,10.702521 23.5529412,11.0084034 C23.707563,11.3277311 23.6638655,11.707563 23.4352941,11.9831933 L23.4151261,12.0033613 L12.4571429,23.3042017 C12.2991597,23.4957983 12.0638655,23.6067227 11.8117647,23.610084 Z M0.732773109,11.5495798 L11.6571429,22.8470588 L11.6773109,22.8672269 C11.7109244,22.9109244 11.7613445,22.9344538 11.8151261,22.9378151 C11.8689076,22.9378151 11.9193277,22.9109244 11.9529412,22.8672269 L11.9731092,22.8470588 L22.9243697,11.5495798 C22.9781513,11.4756303 22.9848739,11.3781513 22.9478992,11.297479 C22.9210084,11.2302521 22.8537815,11.1831933 22.7798319,11.1831933 L17.7411765,11.1831933 C17.2638655,11.1831933 16.8773109,10.7798319 16.8773109,10.2890756 L16.8806723,2.0302521 C16.8806723,1.28739496 16.2789916,0.685714286 15.5361345,0.685714286 L8.08739496,0.685714286 C7.34453782,0.685714286 6.74285714,1.28739496 6.74285714,2.0302521 L6.74285714,10.2857143 C6.74285714,10.7798319 6.35630252,11.1798319 5.8789916,11.1798319 L0.877310924,11.1798319 C0.803361345,11.1798319 0.736134454,11.2268908 0.709243697,11.2941176 C0.668907563,11.3781513 0.678991597,11.4756303 0.732773109,11.5495798 Z" id="Descargar_Bajar_1Light"></path>
        </g>
    </g>
</svg>

<svg width="24" height="24" viewBox="0 0 24 24" xmlns="http://www.w3.org/2000/svg"><path d="M11.812 23.61a.838.838 0 01-.649-.306L.235 12.004l-.02-.02a.912.912 0 01-.114-.976.85.85 0 01.773-.497h5.005c.104 0 .192-.1.192-.222V2.024C6.07.91 6.975.007 8.087.007h7.452c1.113 0 2.017.904 2.017 2.017l-.003 8.262c0 .124.084.222.192.222h5.035a.853.853 0 01.773.5c.155.32.11.7-.118.975l-.02.02-10.958 11.301a.848.848 0 01-.645.306zM.732 11.55l10.925 11.297.02.02a.186.186 0 00.138.07.175.175 0 00.138-.07l.02-.02L22.924 11.55a.252.252 0 00.024-.253.183.183 0 00-.168-.114H17.74c-.477 0-.864-.403-.864-.894l.004-8.259c0-.743-.602-1.344-1.345-1.344H8.087c-.742 0-1.344.601-1.344 1.344v8.256c0 .494-.387.894-.864.894H.877a.183.183 0 00-.168.114.25.25 0 00.024.256z" fill="#5CB615" fill-rule="nonzero"/></svg>
